public/icons/javascript-icon.svg

<svg width="129" height="128" viewBox="0 0 129 128" fill="none" xmlns="http://www.w3.org/2000/svg">
<g clip-path="url(#clip0_67_18)">
<path d="M98.1997 0H30.1997C13.6312 0 0.199707 13.4315 0.199707 30V98C0.199707 114.569 13.6312 128 30.1997 128H98.1997C114.768 128 128.2 114.569 128.2 98V30C128.2 13.4315 114.768 0 98.1997 0Z" fill="#F0DB4F"/>
<path d="M33.8555 106.966L43.6505 101.038C45.5405 104.389 47.2595 107.224 51.383 107.224C55.3355 107.224 57.8275 105.678 57.8275 99.6635V58.7645H69.8565V99.8335C69.8565 112.292 62.5535 117.963 51.8985 117.963C42.276 117.963 36.6905 112.98 33.855 106.965M76.39 105.677L86.184 100.007C88.7625 104.217 92.1135 107.31 98.0415 107.31C103.026 107.31 106.204 104.818 106.204 101.381C106.204 97.257 102.939 95.796 97.44 93.391L94.4335 92.1015C85.755 88.4075 79.998 83.7675 79.998 73.9725C79.998 64.9505 86.872 58.0765 97.6125 58.0765C105.259 58.0765 110.758 60.7405 114.71 67.7L105.345 73.7145C103.282 70.02 101.049 68.5595 97.6125 68.5595C94.0895 68.5595 91.8555 70.7935 91.8555 73.7145C91.8555 77.323 94.0895 78.784 99.2445 81.0185L102.251 82.307C112.476 86.6895 118.233 91.1565 118.233 101.209C118.233 112.036 109.727 117.964 98.2995 117.964C87.13 117.964 79.9125 112.637 76.39 105.677Z" fill="#323330"/>
</g>
<defs>
<clipPath id="clip0_67_18">
<rect width="128" height="128" fill="white" transform="translate(0.199707)"/>
</clipPath>
</defs>
</svg>

<svg xmlns="http://www.w3.org/2000/svg" width="129" height="128" fill="none"><g clip-path="url(#a)"><path fill="#F0DB4F" d="M98.2 0h-68C13.63 0 .2 13.431.2 30v68c0 16.569 13.431 30 30 30h68c16.568 0 30-13.431 30-30V30c0-16.569-13.432-30-30-30Z"/><path fill="#323330" d="m33.855 106.966 9.796-5.928c1.89 3.351 3.608 6.186 7.732 6.186 3.953 0 6.444-1.546 6.444-7.56v-40.9h12.03v41.07c0 12.458-7.303 18.129-17.959 18.129-9.622 0-15.208-4.983-18.043-10.998m42.535-1.288 9.794-5.67c2.579 4.21 5.93 7.303 11.858 7.303 4.984 0 8.162-2.492 8.162-5.929 0-4.124-3.265-5.585-8.764-7.99l-3.007-1.29c-8.678-3.694-14.435-8.334-14.435-18.129 0-9.021 6.874-15.895 17.614-15.895 7.647 0 13.146 2.663 17.098 9.623l-9.365 6.014c-2.063-3.694-4.296-5.154-7.733-5.154-3.522 0-5.756 2.233-5.756 5.154 0 3.609 2.234 5.07 7.389 7.305l3.006 1.288c10.225 4.382 15.982 8.85 15.982 18.902 0 10.827-8.506 16.755-19.934 16.755-11.169 0-18.387-5.327-21.909-12.287Z"/></g><defs><clipPath id="a"><path fill="#fff" d="M.2 0h128v128H.2z"/></clipPath></defs></svg>
